X: 4262
T: Bob MacPherson's
R: jig
M: 6/8
K: Dmajor
G|A3 E2 A|cAc e3|dcd dBB|GAB EBG|
A3 E2 A|cAc e2 c|dcd dBB|EBG A2:|
E|ced c3|cde cAA|Bdc B2 E|Fdc BGE|
ced c3|cde cAA|dcd dBB|EBG A2:|
F|EAA AGA|EEE ecA|DDD DdB|GBG dGB|
EAA AGA|EEE ecA|dcd dBB|EBG A2:|
A|e2 e cAA|AAA ecA|d2d BGG|GGG BGE|
[1 e2 e cAA|AAA ecd|dcd dBB|EBG A2:|
[2 EAA AGA|EEE dcA|dcd dBB|EBG A2||

